generators/app/templates/src/icon.svg

<svg width="420" height="420" fill="none" xmlns="http://www.w3.org/2000/svg">
  <rect width="420" height="420" rx="60" fill="url(#paint0_linear)"/>
  <rect x="2.5" y="2.5" width="415" height="415" rx="57.5" stroke="#000" stroke-opacity=".02" stroke-width="5"/>
  <g clip-path="url(#clip0)" fill="#fff">
    <path d="M178.75 181.583c0 4.144 3.292 8.119 9.153 11.049 5.86 2.93 13.809 4.576 22.097 4.576 8.288 0 16.237-1.646 22.097-4.576 5.861-2.93 9.153-6.905 9.153-11.049 0-4.144-3.292-8.118-9.153-11.048-5.86-2.93-13.809-4.577-22.097-4.577-8.288 0-16.237 1.647-22.097 4.577-5.861 2.93-9.153 6.904-9.153 11.048zM178.75 124.292c0 4.144 3.292 8.118 9.153 11.048 5.86 2.93 13.809 4.577 22.097 4.577 8.288 0 16.237-1.647 22.097-4.577 5.861-2.93 9.153-6.904 9.153-11.048s-3.292-8.119-9.153-11.049c-5.86-2.93-13.809-4.576-22.097-4.576-8.288 0-16.237 1.646-22.097 4.576-5.861 2.93-9.153 6.905-9.153 11.049zM246.458 150.333c0 4.144 3.293 8.119 9.153 11.049 5.861 2.93 13.809 4.576 22.097 4.576 8.288 0 16.237-1.646 22.097-4.576 5.861-2.93 9.153-6.905 9.153-11.049 0-4.144-3.292-8.118-9.153-11.048-5.86-2.93-13.809-4.577-22.097-4.577-8.288 0-16.236 1.647-22.097 4.577-5.86 2.93-9.153 6.904-9.153 11.048zM116.25 150.333c0 4.144 3.292 8.119 9.153 11.049 5.86 2.93 13.809 4.576 22.097 4.576 8.288 0 16.237-1.646 22.097-4.576 5.861-2.93 9.153-6.905 9.153-11.049 0-4.144-3.292-8.118-9.153-11.048-5.86-2.93-13.809-4.577-22.097-4.577-8.288 0-16.237 1.647-22.097 4.577-5.861 2.93-9.153 6.904-9.153 11.048zM94.375 267.208l100.51 43.75a5.215 5.215 0 004.935-.415 5.204 5.204 0 002.357-4.355v-83.334a5.21 5.21 0 00-3.125-4.781l-106.76-46.479a5.204 5.204 0 00-6.668 2.302 5.206 5.206 0 00-.624 2.479v76.5a15.63 15.63 0 009.375 14.333zM217.813 222.792v83.333a5.209 5.209 0 007.291 4.771l100.521-43.75a15.615 15.615 0 006.823-5.764 15.62 15.62 0 002.552-8.559v-76.448a5.206 5.206 0 00-2.352-4.363 5.208 5.208 0 00-4.94-.418l-106.77 46.416a5.207 5.207 0 00-3.125 4.782z"/>
  </g>
  <defs>
    <linearGradient id="paint0_linear" x1="210" y1="0" x2="210" y2="420" gradientUnits="userSpaceOnUse">
      <stop stop-color="#CE1DA7"/>
      <stop offset="1" stop-color="#27A6C2"/>
    </linearGradient>
    <clipPath id="clip0">
      <path fill="#fff" transform="translate(85 85)" d="M0 0h250v250H0z"/>
    </clipPath>
  </defs>
</svg>

<svg width="420" height="420" viewBox="0 0 420 420" fill="none" xmlns="http://www.w3.org/2000/svg">
<rect width="420" height="420" rx="60" fill="url(#paint0_linear)"/>
<rect x="2.5" y="2.5" width="415" height="415" rx="57.5" stroke="black" stroke-opacity="0.02" stroke-width="5"/>
<g clip-path="url(#clip0)">
<path d="M178.75 181.583C178.75 185.727 182.042 189.702 187.903 192.632C193.763 195.562 201.712 197.208 210 197.208C218.288 197.208 226.237 195.562 232.097 192.632C237.958 189.702 241.25 185.727 241.25 181.583C241.25 177.439 237.958 173.465 232.097 170.535C226.237 167.605 218.288 165.958 210 165.958C201.712 165.958 193.763 167.605 187.903 170.535C182.042 173.465 178.75 177.439 178.75 181.583Z" fill="white"/>
<path d="M178.75 124.292C178.75 128.436 182.042 132.41 187.903 135.34C193.763 138.27 201.712 139.917 210 139.917C218.288 139.917 226.237 138.27 232.097 135.34C237.958 132.41 241.25 128.436 241.25 124.292C241.25 120.148 237.958 116.173 232.097 113.243C226.237 110.313 218.288 108.667 210 108.667C201.712 108.667 193.763 110.313 187.903 113.243C182.042 116.173 178.75 120.148 178.75 124.292Z" fill="white"/>
<path d="M246.458 150.333C246.458 154.477 249.751 158.452 255.611 161.382C261.472 164.312 269.42 165.958 277.708 165.958C285.996 165.958 293.945 164.312 299.805 161.382C305.666 158.452 308.958 154.477 308.958 150.333C308.958 146.189 305.666 142.215 299.805 139.285C293.945 136.355 285.996 134.708 277.708 134.708C269.42 134.708 261.472 136.355 255.611 139.285C249.751 142.215 246.458 146.189 246.458 150.333Z" fill="white"/>
<path d="M116.25 150.333C116.25 154.477 119.542 158.452 125.403 161.382C131.263 164.312 139.212 165.958 147.5 165.958C155.788 165.958 163.737 164.312 169.597 161.382C175.458 158.452 178.75 154.477 178.75 150.333C178.75 146.189 175.458 142.215 169.597 139.285C163.737 136.355 155.788 134.708 147.5 134.708C139.212 134.708 131.263 136.355 125.403 139.285C119.542 142.215 116.25 146.189 116.25 150.333Z" fill="white"/>
<path d="M94.375 267.208L194.885 310.958C195.678 311.304 196.544 311.447 197.405 311.375C198.267 311.302 199.097 311.017 199.82 310.543C200.544 310.07 201.138 309.424 201.55 308.663C201.961 307.903 202.177 307.052 202.177 306.188V222.854C202.179 221.839 201.884 220.846 201.328 219.997C200.773 219.148 199.982 218.479 199.052 218.073L92.2917 171.594C91.4985 171.248 90.6315 171.105 89.7691 171.177C88.9067 171.25 88.0761 171.537 87.3524 172.012C86.6286 172.486 86.0345 173.134 85.6238 173.896C85.2131 174.657 84.9987 175.51 85 176.375V252.875C84.9975 255.917 85.8833 258.894 87.5487 261.441C89.2141 263.987 91.5866 265.991 94.375 267.208Z" fill="white"/>
<path d="M217.813 222.792V306.125C217.813 306.99 218.029 307.84 218.44 308.601C218.851 309.361 219.446 310.007 220.169 310.481C220.893 310.954 221.723 311.24 222.584 311.312C223.446 311.385 224.312 311.242 225.104 310.896L325.625 267.146C328.412 265.93 330.783 263.927 332.448 261.382C334.114 258.838 335 255.864 335 252.823V176.375C335.001 175.51 334.787 174.657 334.376 173.896C333.965 173.134 333.371 172.486 332.648 172.012C331.924 171.537 331.093 171.25 330.231 171.177C329.369 171.105 328.502 171.248 327.708 171.594L220.938 218.01C220.007 218.416 219.216 219.085 218.661 219.934C218.106 220.784 217.811 221.777 217.813 222.792Z" fill="white"/>
</g>
<defs>
<linearGradient id="paint0_linear" x1="210" y1="0" x2="210" y2="420" gradientUnits="userSpaceOnUse">
<stop stop-color="#CE1DA7"/>
<stop offset="1" stop-color="#27A6C2"/>
</linearGradient>
<clipPath id="clip0">
<rect width="250" height="250" fill="white" transform="translate(85 85)"/>
</clipPath>
</defs>
</svg>
